static/images/clients/svg/ikea-white.svg

<svg fill="none" height="22" viewBox="0 0 115 22" width="115" xmlns="http://www.w3.org/2000/svg"><path d="m32.4824 1.09108c-.3024.60489-.3024 1.18961-.3024 1.7945v7.56112s4.0527-5.26255 4.9802-6.51265c.7057-.9275 1.5727-2.23808 1.5727-2.84297h13.2269c-.9074.60489-1.9155 1.69368-2.7422 2.70183-.7259.88717-4.8391 5.90773-4.8391 5.90773s6.1094 9.29506 6.8957 10.48466c.4436.6453.9275 1.2501 1.4921 1.7945h-15.223c0-.6049-.5847-1.8348-1.2299-2.8026-.6453-.9678-4.1334-6.2707-4.1334-6.2707v7.2788c0 .6049 0 1.1896.3024 1.7945h-12.6824c.3024-.6049.3024-1.1896.3024-1.7945v-17.29972c0-.60489 0-1.18961-.3024-1.7945zm46.9594 0h-24.4778c.3025.60489.3025 1.18961.3025 1.7945v17.29972c0 .6049 0 1.1896-.3025 1.7945h24.4778v-5.7867c-.6049.3024-1.1896.3024-1.7945.3024h-10.3033v-2.7421h9.9v-4.4157h-9.9v-2.76231h10.3033c.6049 0 1.1896 0 1.7945.28228zm33.9142 19.09422c.201.6654.544 1.2703.988 1.7945h-13.267c.06-.6049-.162-1.1896-.404-1.7945 0 0-.201-.4839-.484-1.1896l-.121-.3024h-7.6413l-.121.3226s-.2218.5847-.4234 1.1896-.4234 1.1896-.3428 1.7945h-10.4645c.4234-.5242.746-1.1291.9476-1.7945l6.2707-17.29976c.2218-.60488.4436-1.18961.3629-1.79449h17.6828c-.161.60488.161 1.18961.383 1.79449.524 1.31059 6.19 16.11016 6.634 17.27956zm-14.9611-5.9077-1.855-4.83908c-.1613-.44359-.3024-.90733-.4032-1.37108-.0807.46375-.2017.92749-.363 1.37108-.0605.20163-.8468 2.31868-1.7541 4.83908zm-84.9059-11.39202c0-.60489 0-1.18961.3024-1.7945h-13.7914c.302444.60489.302444 1.18961.302444 1.7945v17.29972c0 .6049 0 1.1896-.302444 1.7945h13.7914c-.3024-.6049-.3024-1.1896-.3024-1.7945zm95.633-.14114c-.041 1.51222 1.149 2.78248 2.681 2.8228 1.512.04032 2.783-1.14928 2.823-2.68166 0-.04031 0-.10082 0-.14114.02-1.49205-1.149-2.7219931-2.641-2.74215657-.041 0-.061 0-.101 0-1.472-.06050333-2.702 1.08879657-2.742 2.56068657-.041.0605-.041.12098-.02.18147zm4.939 0c.041 1.20977-.927 2.23808-2.137 2.25824-1.21.04032-2.238-.92749-2.258-2.13726 0-.04032 0-.08066 0-.14114-.04-1.16945.867-2.157437 2.036-2.197757h.162c1.189-.02019 2.177.927487 2.197 2.117097zm-.846 1.65335h-.545l-.645-1.16944h-.706v1.16944h-.484v-3.30671h1.23c.585.02019 1.029.48391 1.029 1.06863 0 .40326-.222.7662-.585.96783zm-1.23-1.65335c.322.02019.605-.22179.605-.5444 0-.3226-.222-.60489-.545-.60489-.02 0-.04 0-.06 0h-.666v1.16945h.666" fill="#fff"/></svg>

<svg width="115" height="22" viewBox="0 0 115 22" fill="none" xmlns="http://www.w3.org/2000/svg">
<path d="M32.4824 1.09108C32.18 1.69597 32.18 2.28069 32.18 2.88558V10.4467C32.18 10.4467 36.2327 5.18415 37.1602 3.93405C37.8659 3.00655 38.7329 1.69597 38.7329 1.09108H51.9598C51.0524 1.69597 50.0443 2.78476 49.2176 3.79291C48.4917 4.68008 44.3785 9.70064 44.3785 9.70064C44.3785 9.70064 50.4879 18.9957 51.2742 20.1853C51.7178 20.8306 52.2017 21.4354 52.7663 21.9798H37.5433C37.5433 21.3749 36.9586 20.145 36.3134 19.1772C35.6681 18.2094 32.18 12.9065 32.18 12.9065V20.1853C32.18 20.7902 32.18 21.3749 32.4824 21.9798H19.8C20.1024 21.3749 20.1024 20.7902 20.1024 20.1853V2.88558C20.1024 2.28069 20.1024 1.69597 19.8 1.09108H32.4824ZM79.4418 1.09108H54.964C55.2665 1.69597 55.2665 2.28069 55.2665 2.88558V20.1853C55.2665 20.7902 55.2665 21.3749 54.964 21.9798H79.4418V16.1931C78.8369 16.4955 78.2522 16.4955 77.6473 16.4955H67.344V13.7534H77.244V9.3377H67.344V6.57539H77.6473C78.2522 6.57539 78.8369 6.57539 79.4418 6.85767V1.09108ZM113.356 20.1853C113.557 20.8507 113.9 21.4556 114.344 21.9798H101.077C101.137 21.3749 100.915 20.7902 100.673 20.1853C100.673 20.1853 100.472 19.7014 100.189 18.9957L100.068 18.6933H92.4267L92.3057 19.0159C92.3057 19.0159 92.0839 19.6006 91.8823 20.2055C91.6807 20.8104 91.4589 21.3951 91.5395 22H81.075C81.4984 21.4758 81.821 20.8709 82.0226 20.2055L88.2933 2.90574C88.5151 2.30086 88.7369 1.71613 88.6562 1.11125H106.339C106.178 1.71613 106.5 2.30086 106.722 2.90574C107.246 4.21633 112.912 19.0159 113.356 20.1853ZM98.3949 14.2776L96.5399 9.43852C96.3786 8.99493 96.2375 8.53119 96.1367 8.06744C96.056 8.53119 95.935 8.99493 95.7737 9.43852C95.7132 9.64015 94.9269 11.7572 94.0196 14.2776H98.3949ZM13.489 2.88558C13.489 2.28069 13.489 1.69597 13.7914 1.09108H0C0.302444 1.69597 0.302444 2.28069 0.302444 2.88558V20.1853C0.302444 20.7902 0.302444 21.3749 0 21.9798H13.7914C13.489 21.3749 13.489 20.7902 13.489 20.1853V2.88558ZM109.122 2.74444C109.081 4.25666 110.271 5.52692 111.803 5.56724C113.315 5.60756 114.586 4.41796 114.626 2.88558C114.626 2.84527 114.626 2.78476 114.626 2.74444C114.646 1.25239 113.477 0.0224469 111.985 0.00228343C111.944 0.00228343 111.924 0.00228343 111.884 0.00228343C110.412 -0.0582199 109.182 1.09108 109.142 2.56297C109.101 2.62347 109.101 2.68395 109.122 2.74444H109.122ZM114.061 2.74444C114.102 3.95421 113.134 4.98252 111.924 5.00268C110.714 5.043 109.686 4.07519 109.666 2.86542C109.666 2.8251 109.666 2.78476 109.666 2.72428C109.626 1.55483 110.533 0.566843 111.702 0.526523C111.763 0.526523 111.803 0.526523 111.864 0.526523C113.053 0.506333 114.041 1.45401 114.061 2.64362C114.061 2.68394 114.061 2.72428 114.061 2.74444ZM113.215 4.39779H112.67L112.025 3.22835H111.319V4.39779H110.835V1.09108H112.065C112.65 1.11127 113.094 1.57499 113.094 2.15971C113.094 2.56297 112.872 2.92591 112.509 3.12754L113.215 4.39779ZM111.985 2.74444C112.307 2.76463 112.59 2.52265 112.59 2.20004C112.59 1.87744 112.368 1.59515 112.045 1.59515C112.025 1.59515 112.005 1.59515 111.985 1.59515H111.319V2.7646H111.985" fill="white"/>
</svg>
